assets/svg/icon_date.svg

<svg fill="none" height="20" viewBox="0 0 18 20" width="18" xmlns="http://www.w3.org/2000/svg"><g fill="#000"><path d="m2.44799 3.07961h.48c.14398 0 .24-.09602.24-.24s-.09602-.24-.24-.24h-.48c-.88796 0-1.607963.72-1.607963 1.60796v13.58403c0 .8879.720003 1.6079 1.607963 1.6079h13.58401c.8879 0 1.6079-.72 1.6079-1.6079l.0001-13.58403c0-.88796-.72-1.60796-1.6079-1.60796h-.5521c-.144 0-.24.09602-.24.24s.096.24.24.24h.5521c.6239 0 1.1279.50398 1.1279 1.12796v2.952h-15.83997v-2.952c0-.62398.50398-1.12796 1.12796-1.12796zm14.71201 4.56v10.15199c0 .624-.504 1.128-1.128 1.128h-13.58397c-.62398 0-1.12796-.504-1.12796-1.128v-10.15199z"/><path d="m6.19202 2.83961c0 .14398.09601.24.24.24h5.59198c.144 0 .24-.09602.24-.24s-.096-.24-.24-.24h-5.59198c-.12 0-.24.09602-.24.24z"/><path d="m3.95999 12.1996h1.2c.40796 0 .72-.3121.72-.72v-1.2c0-.40799-.31204-.72003-.72-.72003h-1.2c-.40796 0-.72.31204-.72.72003v1.2c0 .4079.31204.72.72.72zm-.24-1.92c0-.144.09602-.24.24-.24h1.2c.14398 0 .24.096.24.24v1.2c0 .144-.09602.24-.24.24h-1.2c-.14398 0-.24-.096-.24-.24z"/><path d="m8.51993 12.1996h1.2c.40797 0 .71997-.3121.71997-.72v-1.2c0-.40799-.312-.72003-.71997-.72003h-1.2c-.40796 0-.72.31204-.72.72003v1.2c0 .4079.31204.72.72.72zm-.24-1.92c0-.144.09601-.24.24-.24h1.2c.14398 0 .24.096.24.24v1.2c0 .144-.09602.24-.24.24h-1.2c-.14399 0-.24-.096-.24-.24z"/><path d="m13.08 12.1996h1.2c.4079 0 .72-.3121.72-.72v-1.2c0-.40799-.3121-.72003-.72-.72003h-1.2c-.408 0-.72.31204-.72.72003v1.2c0 .4079.312.72.72.72zm-.24-1.92c0-.144.096-.24.24-.24h1.2c.144 0 .24.096.24.24v1.2c0 .144-.096.24-.24.24h-1.2c-.144 0-.24-.096-.24-.24z"/><path d="m3.95999 16.7601h1.2c.40796 0 .72-.312.72-.72v-1.2c0-.4079-.31204-.72-.72-.72h-1.2c-.40796 0-.72.3121-.72.72v1.2c0 .408.31204.72.72.72zm-.24-1.92c0-.144.09602-.24.24-.24h1.2c.14398 0 .24.096.24.24v1.2c0 .144-.09602.24-.24.24h-1.2c-.14398 0-.24-.096-.24-.24z"/><path d="m8.51993 16.7601h1.2c.40797 0 .71997-.312.71997-.72v-1.2c0-.4079-.312-.72-.71997-.72h-1.2c-.40796 0-.72.3121-.72.72v1.2c0 .408.31204.72.72.72zm-.24-1.92c0-.144.09601-.24.24-.24h1.2c.14398 0 .24.096.24.24v1.2c0 .144-.09602.24-.24.24h-1.2c-.14399 0-.24-.096-.24-.24z"/><path d="m13.08 16.7601h1.2c.4079 0 .72-.312.72-.72v-1.2c0-.4079-.3121-.72-.72-.72h-1.2c-.408 0-.72.3121-.72.72v1.2c0 .408.312.72.72.72zm-.24-1.92c0-.144.096-.24.24-.24h1.2c.144 0 .24.096.24.24v1.2c0 .144-.096.24-.24.24h-1.2c-.144 0-.24-.096-.24-.24z"/><path d="m12.84 1.63992v2.4c0 .40796.312.72.72.72h.48c.4079 0 .72-.31204.72-.72v-2.4c0-.40796-.3121-.719998-.72-.719998h-.48c-.408 0-.72.312038-.72.719998zm1.44 0v2.4c0 .14399-.0961.24-.24.24h-.48c-.144 0-.24-.09601-.24-.24v-2.4c0-.14398.096-.24.24-.24h.48c.1439 0 .24.09602.24.24z"/><path d="m4.91997 4.75992c.40796 0 .72-.31204.72-.72v-2.4c0-.40796-.31204-.719998-.72-.719998h-.48c-.40796 0-.72.312038-.72.719998v2.4c0 .40796.31204.72.72.72zm-.72-.72v-2.4c0-.14398.09602-.24.24-.24h.48c.14398 0 .24.09602.24.24v2.4c0 .14399-.09602.24-.24.24h-.48c-.14398 0-.24-.09601-.24-.24z"/></g></svg>

<svg width="18" height="20" viewBox="0 0 18 20" fill="none" xmlns="http://www.w3.org/2000/svg">
<path d="M2.44799 3.07961H2.92799C3.07197 3.07961 3.16799 2.98359 3.16799 2.83961C3.16799 2.69563 3.07197 2.59961 2.92799 2.59961H2.44799C1.56003 2.59961 0.840027 3.31961 0.840027 4.20757V17.7916C0.840027 18.6795 1.56003 19.3995 2.44799 19.3995H16.032C16.9199 19.3995 17.6399 18.6795 17.6399 17.7916L17.64 4.20757C17.64 3.31961 16.92 2.59961 16.0321 2.59961H15.48C15.336 2.59961 15.24 2.69563 15.24 2.83961C15.24 2.98359 15.336 3.07961 15.48 3.07961H16.0321C16.656 3.07961 17.16 3.58359 17.16 4.20757V7.15957H1.32003V4.20757C1.32003 3.58359 1.82401 3.07961 2.44799 3.07961ZM17.16 7.63961V17.7916C17.16 18.4156 16.656 18.9196 16.032 18.9196H2.44803C1.82405 18.9196 1.32007 18.4156 1.32007 17.7916V7.63961H17.16Z" fill="black"/>
<path d="M6.19202 2.83961C6.19202 2.98359 6.28803 3.07961 6.43202 3.07961H12.024C12.168 3.07961 12.264 2.98359 12.264 2.83961C12.264 2.69563 12.168 2.59961 12.024 2.59961H6.43202C6.31202 2.59961 6.19202 2.69563 6.19202 2.83961Z" fill="black"/>
<path d="M3.95999 12.1996H5.15999C5.56795 12.1996 5.87999 11.8875 5.87999 11.4796V10.2796C5.87999 9.87161 5.56795 9.55957 5.15999 9.55957H3.95999C3.55203 9.55957 3.23999 9.87161 3.23999 10.2796V11.4796C3.23999 11.8875 3.55203 12.1996 3.95999 12.1996ZM3.71999 10.2796C3.71999 10.1356 3.81601 10.0396 3.95999 10.0396H5.15999C5.30397 10.0396 5.39999 10.1356 5.39999 10.2796V11.4796C5.39999 11.6236 5.30397 11.7196 5.15999 11.7196H3.95999C3.81601 11.7196 3.71999 11.6236 3.71999 11.4796V10.2796Z" fill="black"/>
<path d="M8.51993 12.1996H9.71993C10.1279 12.1996 10.4399 11.8875 10.4399 11.4796V10.2796C10.4399 9.87161 10.1279 9.55957 9.71993 9.55957H8.51993C8.11197 9.55957 7.79993 9.87161 7.79993 10.2796V11.4796C7.79993 11.8875 8.11197 12.1996 8.51993 12.1996ZM8.27993 10.2796C8.27993 10.1356 8.37594 10.0396 8.51993 10.0396H9.71993C9.86391 10.0396 9.95993 10.1356 9.95993 10.2796V11.4796C9.95993 11.6236 9.86391 11.7196 9.71993 11.7196H8.51993C8.37594 11.7196 8.27993 11.6236 8.27993 11.4796V10.2796Z" fill="black"/>
<path d="M13.08 12.1996H14.28C14.6879 12.1996 15 11.8875 15 11.4796V10.2796C15 9.87161 14.6879 9.55957 14.28 9.55957H13.08C12.672 9.55957 12.36 9.87161 12.36 10.2796V11.4796C12.36 11.8875 12.672 12.1996 13.08 12.1996ZM12.84 10.2796C12.84 10.1356 12.936 10.0396 13.08 10.0396H14.28C14.424 10.0396 14.52 10.1356 14.52 10.2796V11.4796C14.52 11.6236 14.424 11.7196 14.28 11.7196H13.08C12.936 11.7196 12.84 11.6236 12.84 11.4796V10.2796Z" fill="black"/>
<path d="M3.95999 16.7601H5.15999C5.56795 16.7601 5.87999 16.4481 5.87999 16.0401V14.8401C5.87999 14.4322 5.56795 14.1201 5.15999 14.1201H3.95999C3.55203 14.1201 3.23999 14.4322 3.23999 14.8401V16.0401C3.23999 16.4481 3.55203 16.7601 3.95999 16.7601ZM3.71999 14.8401C3.71999 14.6961 3.81601 14.6001 3.95999 14.6001H5.15999C5.30397 14.6001 5.39999 14.6961 5.39999 14.8401V16.0401C5.39999 16.1841 5.30397 16.2801 5.15999 16.2801H3.95999C3.81601 16.2801 3.71999 16.1841 3.71999 16.0401V14.8401Z" fill="black"/>
<path d="M8.51993 16.7601H9.71993C10.1279 16.7601 10.4399 16.4481 10.4399 16.0401V14.8401C10.4399 14.4322 10.1279 14.1201 9.71993 14.1201H8.51993C8.11197 14.1201 7.79993 14.4322 7.79993 14.8401V16.0401C7.79993 16.4481 8.11197 16.7601 8.51993 16.7601ZM8.27993 14.8401C8.27993 14.6961 8.37594 14.6001 8.51993 14.6001H9.71993C9.86391 14.6001 9.95993 14.6961 9.95993 14.8401V16.0401C9.95993 16.1841 9.86391 16.2801 9.71993 16.2801H8.51993C8.37594 16.2801 8.27993 16.1841 8.27993 16.0401V14.8401Z" fill="black"/>
<path d="M13.08 16.7601H14.28C14.6879 16.7601 15 16.4481 15 16.0401V14.8401C15 14.4322 14.6879 14.1201 14.28 14.1201H13.08C12.672 14.1201 12.36 14.4322 12.36 14.8401V16.0401C12.36 16.4481 12.672 16.7601 13.08 16.7601ZM12.84 14.8401C12.84 14.6961 12.936 14.6001 13.08 14.6001H14.28C14.424 14.6001 14.52 14.6961 14.52 14.8401V16.0401C14.52 16.1841 14.424 16.2801 14.28 16.2801H13.08C12.936 16.2801 12.84 16.1841 12.84 16.0401V14.8401Z" fill="black"/>
<path d="M12.84 1.63992V4.03992C12.84 4.44788 13.152 4.75992 13.56 4.75992H14.04C14.4479 4.75992 14.76 4.44788 14.76 4.03992V1.63992C14.76 1.23196 14.4479 0.919922 14.04 0.919922H13.56C13.152 0.919922 12.84 1.23196 12.84 1.63992ZM14.28 1.63992V4.03992C14.28 4.18391 14.1839 4.27992 14.04 4.27992H13.56C13.416 4.27992 13.32 4.18391 13.32 4.03992V1.63992C13.32 1.49594 13.416 1.39992 13.56 1.39992H14.04C14.1839 1.39992 14.28 1.49594 14.28 1.63992Z" fill="black"/>
<path d="M4.91997 4.75992C5.32793 4.75992 5.63997 4.44788 5.63997 4.03992V1.63992C5.63997 1.23196 5.32793 0.919922 4.91997 0.919922H4.43997C4.03201 0.919922 3.71997 1.23196 3.71997 1.63992V4.03992C3.71997 4.44788 4.03201 4.75992 4.43997 4.75992H4.91997ZM4.19997 4.03992V1.63992C4.19997 1.49594 4.29599 1.39992 4.43997 1.39992H4.91997C5.06395 1.39992 5.15997 1.49594 5.15997 1.63992V4.03992C5.15997 4.18391 5.06395 4.27992 4.91997 4.27992H4.43997C4.29599 4.27992 4.19997 4.18391 4.19997 4.03992Z" fill="black"/>
</svg>
